icons/Bell_1_Off_filled.svg

<svg width="24" height="24" viewBox="0 0 24 24" fill="none" xmlns="http://www.w3.org/2000/svg">
<path fill-rule="evenodd" clip-rule="evenodd" d="M20.5303,19.4697c0.2929,0.2929 0.2929,0.7678 0,1.0607c-0.2929,0.2928 -0.7677,0.2928 -1.0606,0l-3.2804,-3.2804h-0.0284h-0.0309h-0.0309h-0.0311h-0.031h-0.0311h-0.0312h-0.0313h-0.0312h-0.0314h-0.0314h-0.0314h-0.0315h-0.0316h-0.0128c-0.1287,1.9545 -1.7548,3.5 -3.7418,3.5c-1.9871,0 -3.61318,-1.5455 -3.74183,-3.5h-0.14756h-0.48021h-0.46245h-0.22394h-0.02763h-0.02755h-0.05485h-0.0273h-0.02722h-0.02713h-0.02705h-0.81788h-0.02398h-0.02387h-0.02378h-0.02367h-0.02357h-0.02346h-0.02336h-0.02325h-0.02315h-0.02305h-0.02294h-0.02283h-0.02273h-0.02262h-0.02251h-0.0224h-0.17525h-0.0214h-0.02129h-0.02118h-0.02106h-0.02095h-0.02083h-0.02072h-0.0206h-0.02048h-0.02036h-0.02025h-0.02013h-0.02001h-0.01989h-0.01977h-0.01966h-0.01953h-0.01941h-0.01928h-0.01917h-0.01904h-0.01892h-0.01879h-0.01867h-0.01855h-0.01842h-0.0183h-0.01817h-0.0714h-0.01753h-0.0174h-0.01727h-0.01714h-0.01701h-0.01688h-0.01675h-0.01662c-0.95361,0 -1.26389,-1.1002 -0.74512,-1.6867c0.71182,-0.8048 1.0449,-1.5092 1.21463,-2.3181c0.17871,-0.8518 0.182,-1.8324 0.182,-3.24521c0,-1.04197 0.30828,-2.01701 0.81966,-2.86969l-2.59995,-2.59995c-0.29289,-0.29289 -0.29289,-0.76776 0,-1.06066c0.29289,-0.29289 0.76777,-0.29289 1.06066,0zM20.1474,15.5633c0.3736,0.4224 0.3144,1.0869 -0.0808,1.4426l-11.9903,-11.99022c1.1412,-0.78796 2.523,-1.26569 3.9241,-1.26569c1.7018,0 3.3752,0.70489 4.6234,1.81445c1.2494,1.11068 2.1266,2.6779 2.1266,4.43555c0,1.41271 0.0033,2.39331 0.1821,3.24511c0.1698,0.8089 0.503,1.5134 1.2149,2.3182zM9.764,17.25c0.12436,1.125 1.0781,2 2.2363,2c1.1581,0 2.1119,-0.875 2.2362,-2h-0.0152h-0.0335h-0.0336h-0.0335h-0.0336h-0.0336h-0.0337h-0.0337h-0.0337h-0.0337h-0.0337h-0.0338h-0.0338h-0.0338h-0.0339h-0.0338h-0.0339h-0.0339h-0.0339h-0.034h-0.0339h-0.034h-0.034h-0.0341h-0.034h-0.0341h-0.034h-0.0341h-0.0341h-0.0341h-0.0342h-0.0341h-0.0342h-0.0342h-0.0342h-0.0342h-0.0342h-0.0342h-0.0342h-0.0343h-0.0342h-0.0343h-0.0343h-0.0342h-0.0343h-0.0343h-0.0343h-0.0343h-0.2747h-0.5494h-0.5478h-0.2727h-0.034h-0.034h-0.034h-0.0339h-0.0339h-0.034h-0.0338h-0.0339h-0.0339h-0.0338h-0.0338h-0.0338h-0.0675h-0.0337h-0.0337h-0.2684z" fill="#002B51"/>
</svg>

<svg width="24" height="24" viewBox="0 0 24 24" fill="none" xmlns="http://www.w3.org/2000/svg">
<path fill-rule="evenodd" clip-rule="evenodd" d="M4.53033 3.46969C4.23744 3.1768 3.76256 3.1768 3.46967 3.46969C3.17678 3.76259 3.17678 4.23746 3.46967 4.53035L6.06962 7.1303C5.55824 7.98298 5.24996 8.95802 5.24996 9.99999C5.24996 11.4128 5.24667 12.3934 5.06796 13.2452C4.89823 14.0541 4.56515 14.7585 3.85333 15.5633C3.33456 16.1498 3.64484 17.25 4.59845 17.25H4.61507H4.63182H4.6487H4.66571H4.68285H4.70012H4.71752H4.73505H4.80645H4.82462H4.84292H4.86134H4.87989H4.89856H4.91735H4.93627H4.95531H4.97448H4.99376H5.01317H5.0327H5.05236H5.07213H5.09202H5.11203H5.13216H5.15241H5.17277H5.19325H5.21385H5.23457H5.2554H5.27635H5.29741H5.31859H5.33988H5.36128H5.53653H5.55893H5.58144H5.60406H5.62679H5.64962H5.67256H5.69561H5.71876H5.74201H5.76537H5.78883H5.8124H5.83607H5.85985H5.88372H5.9077H6.72558H6.75263H6.77976H6.80698H6.83428H6.88913H6.91668H6.94431H7.16825H7.6307H8.11091H8.25847C8.38712 19.2045 10.0132 20.75 12.0003 20.75C13.9873 20.75 15.6134 19.2045 15.7421 17.25H15.7549H15.7865H15.818H15.8494H15.8808H15.9122H15.9434H15.9747H16.0059H16.037H16.068H16.0991H16.13H16.1609H16.1893L19.4697 20.5304C19.7626 20.8232 20.2374 20.8232 20.5303 20.5304C20.8232 20.2375 20.8232 19.7626 20.5303 19.4697L4.53033 3.46969ZM20.1474 15.5633C20.521 15.9857 20.4618 16.6502 20.0666 17.0059L8.0763 5.01568C9.2175 4.22772 10.5993 3.74999 12.0004 3.74999C13.7022 3.74999 15.3756 4.45488 16.6238 5.56444C17.8732 6.67512 18.7504 8.24234 18.7504 9.99999C18.7504 11.4127 18.7537 12.3933 18.9325 13.2451C19.1023 14.054 19.4355 14.7585 20.1474 15.5633ZM9.764 17.25C9.88836 18.375 10.8421 19.25 12.0003 19.25C13.1584 19.25 14.1122 18.375 14.2365 17.25H14.2213H14.1878H14.1542H14.1207H14.0871H14.0535H14.0198H13.9861H13.9524H13.9187H13.885H13.8512H13.8174H13.7836H13.7497H13.7159H13.682H13.6481H13.6142H13.5802H13.5463H13.5123H13.4783H13.4442H13.4102H13.3761H13.3421H13.308H13.2739H13.2398H13.2056H13.1715H13.1373H13.1031H13.0689H13.0347H13.0005H12.9663H12.9321H12.8978H12.8636H12.8293H12.795H12.7608H12.7265H12.6922H12.6579H12.6236H12.3489H11.7995H11.2517H10.979H10.945H10.911H10.877H10.8431H10.8092H10.7752H10.7414H10.7075H10.6736H10.6398H10.606H10.5722H10.5047H10.471H10.4373H10.1689H9.764Z" fill="#002B51"/>
</svg>
